src/assets/outline/CalendarRemove.svg

<svg width="24" height="24" viewBox="0 0 24 24"  xmlns="http://www.w3.org/2000/svg">
<path d="M8 5.75C7.59 5.75 7.25 5.41 7.25 5V2C7.25 1.59 7.59 1.25 8 1.25C8.41 1.25 8.75 1.59 8.75 2V5C8.75 5.41 8.41 5.75 8 5.75Z" />
<path d="M16 5.75C15.59 5.75 15.25 5.41 15.25 5V2C15.25 1.59 15.59 1.25 16 1.25C16.41 1.25 16.75 1.59 16.75 2V5C16.75 5.41 16.41 5.75 16 5.75Z" />
<path d="M8.5 14.5002C8.24 14.5002 7.97999 14.3902 7.78999 14.2102C7.74999 14.1602 7.7 14.1102 7.67 14.0602C7.63 14.0002 7.6 13.9402 7.58 13.8802C7.55 13.8202 7.53 13.7602 7.52 13.7002C7.51 13.6302 7.5 13.5602 7.5 13.5002C7.5 13.2402 7.60999 12.9802 7.78999 12.7902C8.15999 12.4202 8.83001 12.4202 9.21001 12.7902C9.39001 12.9802 9.5 13.2402 9.5 13.5002C9.5 13.5602 9.49 13.6302 9.48 13.7002C9.47 13.7602 9.45 13.8202 9.42 13.8802C9.4 13.9402 9.37 14.0002 9.33 14.0602C9.29 14.1102 9.25001 14.1602 9.21001 14.2102C9.02001 14.3902 8.76 14.5002 8.5 14.5002Z" />
<path d="M12 14.4999C11.87 14.4999 11.74 14.4699 11.62 14.4199C11.49 14.3699 11.38 14.2999 11.29 14.2099C11.25 14.1599 11.2 14.1099 11.17 14.0599C11.13 13.9999 11.1 13.9399 11.08 13.8799C11.05 13.8199 11.03 13.7599 11.02 13.6999C11.01 13.6299 11 13.5599 11 13.4999C11 13.2399 11.11 12.9799 11.29 12.7899C11.38 12.6999 11.49 12.6299 11.62 12.5799C11.98 12.4199 12.43 12.5099 12.71 12.7899C12.89 12.9799 13 13.2399 13 13.4999C13 13.5599 12.99 13.6299 12.98 13.6999C12.97 13.7599 12.95 13.8199 12.92 13.8799C12.9 13.9399 12.87 13.9999 12.83 14.0599C12.79 14.1099 12.75 14.1599 12.71 14.2099C12.52 14.3899 12.26 14.4999 12 14.4999Z" />
<path d="M8.5 18C8.23 18 7.97999 17.89 7.78999 17.71C7.60999 17.52 7.5 17.26 7.5 17C7.5 16.74 7.60999 16.48 7.78999 16.29C7.83999 16.25 7.89 16.2 7.94 16.17C8 16.13 8.06 16.1 8.12 16.08C8.18 16.05 8.24 16.03 8.3 16.02C8.5 15.98 8.7 16 8.88 16.08C9.01 16.13 9.11001 16.2 9.21001 16.29C9.39001 16.48 9.5 16.74 9.5 17C9.5 17.26 9.39001 17.52 9.21001 17.71C9.11001 17.8 9.01 17.87 8.88 17.92C8.76 17.97 8.63 18 8.5 18Z" />
<path d="M20.5 9.83984H3.5C3.09 9.83984 2.75 9.49984 2.75 9.08984C2.75 8.67984 3.09 8.33984 3.5 8.33984H20.5C20.91 8.33984 21.25 8.67984 21.25 9.08984C21.25 9.49984 20.91 9.83984 20.5 9.83984Z" />
<path d="M18 23.75C15.38 23.75 13.25 21.62 13.25 19C13.25 16.38 15.38 14.25 18 14.25C20.62 14.25 22.75 16.38 22.75 19C22.75 21.62 20.62 23.75 18 23.75ZM18 15.75C16.21 15.75 14.75 17.21 14.75 19C14.75 20.79 16.21 22.25 18 22.25C19.79 22.25 21.25 20.79 21.25 19C21.25 17.21 19.79 15.75 18 15.75Z" />
<path d="M19.0699 20.8604C18.8799 20.8604 18.6899 20.7904 18.5399 20.6404L16.4299 18.5304C16.1399 18.2404 16.1399 17.7604 16.4299 17.4704C16.7199 17.1804 17.1999 17.1804 17.4899 17.4704L19.5999 19.5804C19.8899 19.8704 19.8899 20.3504 19.5999 20.6404C19.4499 20.7904 19.2599 20.8604 19.0699 20.8604Z" />
<path d="M16.9301 20.8897C16.7401 20.8897 16.5501 20.8197 16.4001 20.6697C16.1101 20.3797 16.1101 19.8997 16.4001 19.6097L18.5101 17.4997C18.8001 17.2097 19.2801 17.2097 19.5701 17.4997C19.8601 17.7897 19.8601 18.2697 19.5701 18.5597L17.4601 20.6697C17.3101 20.8097 17.1201 20.8897 16.9301 20.8897Z" />
<path d="M15.37 22.75H8C4.35 22.75 2.25 20.65 2.25 17V8.5C2.25 4.85 4.35 2.75 8 2.75H16C19.65 2.75 21.75 4.85 21.75 8.5V16.36C21.75 16.67 21.56 16.95 21.26 17.06C20.97 17.17 20.64 17.09 20.43 16.85C19.81 16.15 18.92 15.75 17.99 15.75C16.2 15.75 14.74 17.21 14.74 19C14.74 19.59 14.9 20.17 15.21 20.67C15.38 20.97 15.6 21.22 15.84 21.43C16.08 21.63 16.17 21.96 16.06 22.26C15.97 22.55 15.69 22.75 15.37 22.75ZM8 4.25C5.14 4.25 3.75 5.64 3.75 8.5V17C3.75 19.86 5.14 21.25 8 21.25H13.82C13.45 20.57 13.25 19.8 13.25 19C13.25 16.38 15.38 14.25 18 14.25C18.79 14.25 19.57 14.45 20.25 14.82V8.5C20.25 5.64 18.86 4.25 16 4.25H8Z" />
</svg>

<?xml version="1.0" encoding="UTF-8"?>
<svg width="24" height="24" viewBox="0 0 24 24" xmlns="http://www.w3.org/2000/svg">
 <path d="m8 5.75c-0.41 0-0.75-0.34-0.75-0.75v-3c0-0.41 0.34-0.75 0.75-0.75s0.75 0.34 0.75 0.75v3c0 0.41-0.34 0.75-0.75 0.75z"/>
 <path d="m16 5.75c-0.41 0-0.75-0.34-0.75-0.75v-3c0-0.41 0.34-0.75 0.75-0.75s0.75 0.34 0.75 0.75v3c0 0.41-0.34 0.75-0.75 0.75z"/>
 <path d="m8.5 14.5c-0.26 0-0.52001-0.11-0.71001-0.29-0.04-0.05-0.08999-0.1-0.11999-0.15-0.04-0.06-0.07-0.12-0.09-0.18-0.03-0.06-0.05-0.12-0.06-0.18-0.01-0.07-0.02-0.14-0.02-0.2 0-0.26 0.10999-0.52 0.28999-0.71 0.37-0.37 1.04-0.37 1.42 0 0.18 0.19 0.28999 0.45 0.28999 0.71 0 0.06-0.01 0.13-0.02 0.2-0.01 0.06-0.03 0.12-0.06 0.18-0.02 0.06-0.05 0.12-0.09 0.18-0.04 0.05-0.07999 0.1-0.11999 0.15-0.19 0.18-0.45001 0.29-0.71001 0.29z"/>
 <path d="m12 14.5c-0.13 0-0.26-0.03-0.38-0.08-0.13-0.05-0.24-0.12-0.33-0.21-0.04-0.05-0.09-0.1-0.12-0.15-0.04-0.06-0.07-0.12-0.09-0.18-0.03-0.06-0.05-0.12-0.06-0.18-0.01-0.07-0.02-0.14-0.02-0.2 0-0.26 0.11-0.52 0.29-0.71 0.09-0.09 0.2-0.16 0.33-0.21 0.36-0.16 0.81-0.07 1.09 0.21 0.18 0.19 0.29 0.45 0.29 0.71 0 0.06-0.01 0.13-0.02 0.2-0.01 0.06-0.03 0.12-0.06 0.18-0.02 0.06-0.05 0.12-0.09 0.18l-0.12 0.15c-0.19 0.18-0.45 0.29-0.71 0.29z"/>
 <path d="m8.5 18c-0.27 0-0.52001-0.11-0.71001-0.29-0.18-0.19-0.28999-0.45-0.28999-0.71s0.10999-0.52 0.28999-0.71c0.05-0.04 0.10001-0.09 0.15001-0.12 0.06-0.04 0.12-0.07 0.18-0.09 0.06-0.03 0.12-0.05 0.18-0.06 0.2-0.04 0.4-0.02 0.58 0.06 0.13 0.05 0.23001 0.12 0.33001 0.21 0.18 0.19 0.28999 0.45 0.28999 0.71s-0.10999 0.52-0.28999 0.71c-0.1 0.09-0.20001 0.16-0.33001 0.21-0.12 0.05-0.25 0.08-0.38 0.08z"/>
 <path d="m20.5 9.8398h-17c-0.41 0-0.75-0.34-0.75-0.75s0.34-0.75 0.75-0.75h17c0.41 0 0.75 0.34 0.75 0.75s-0.34 0.75-0.75 0.75z"/>
 <path d="m18 23.75c-2.62 0-4.75-2.13-4.75-4.75s2.13-4.75 4.75-4.75 4.75 2.13 4.75 4.75-2.13 4.75-4.75 4.75zm0-8c-1.79 0-3.25 1.46-3.25 3.25s1.46 3.25 3.25 3.25 3.25-1.46 3.25-3.25-1.46-3.25-3.25-3.25z"/>
 <path d="m19.07 20.86c-0.19 0-0.38-0.07-0.53-0.22l-2.11-2.11c-0.29-0.29-0.29-0.77 0-1.06s0.77-0.29 1.06 0l2.11 2.11c0.29 0.29 0.29 0.77 0 1.06-0.15 0.15-0.34 0.22-0.53 0.22z"/>
 <path d="m16.93 20.89c-0.19 0-0.38-0.07-0.53-0.22-0.29-0.29-0.29-0.77 0-1.06l2.11-2.11c0.29-0.29 0.77-0.29 1.06 0s0.29 0.77 0 1.06l-2.11 2.11c-0.15 0.14-0.34 0.22-0.53 0.22z"/>
 <path d="m15.37 22.75h-7.37c-3.65 0-5.75-2.1-5.75-5.75v-8.5c0-3.65 2.1-5.75 5.75-5.75h8c3.65 0 5.75 2.1 5.75 5.75v7.86c0 0.31-0.19 0.59-0.49 0.7-0.29 0.11-0.62 0.03-0.83-0.21-0.62-0.7-1.51-1.1-2.44-1.1-1.79 0-3.25 1.46-3.25 3.25 0 0.59 0.16 1.17 0.47 1.67 0.17 0.3 0.39 0.55 0.63 0.76 0.24 0.2 0.33 0.53 0.22 0.83-0.09 0.29-0.37 0.49-0.69 0.49zm-7.37-18.5c-2.86 0-4.25 1.39-4.25 4.25v8.5c0 2.86 1.39 4.25 4.25 4.25h5.82c-0.37-0.68-0.57-1.45-0.57-2.25 0-2.62 2.13-4.75 4.75-4.75 0.79 0 1.57 0.2 2.25 0.57v-6.32c0-2.86-1.39-4.25-4.25-4.25h-8z"/>
</svg>
